X:0803
T:Dundee Volunteers March.
S:Aird v5 p1
M:C
L:1/8
Q:1/4=80 "Slow"
I: :: ||
Z:Jack Campin * www.campin.me.uk * 2009
K:G
 D>D|G2G>G A2A>A|B2B>B B2c2|dded  c2 B2 |A2A>A A2
 zD |G2G>G A2A>A|B2BB  c3 c|BBcB  A2(GF)|G2G>G G2:|
(Bc)|d2d>d d3  B|c2c>c c3 A|B2B>B B2 AG |BdcB  A2
 D>D|G2G>G A2A>A|B2BB  c3 c|BBcB  A2(GF)|G2G>G G2|]
<end>
<start>
